;FLAVOR:Marlin
;TIME:21101
;Filament used: 13.9283m
;Layer height: 0.2
;MINX:52.785
;MINY:42.2
;MINZ:0.2
;MAXX:167.215
;MAXY:177.8
;MAXZ:20
;Generated with Cura_SteamEngine 4.8.0
M140 S60
M105
M190 S60
M104 S200
M105
M109 S200
M82 ;absolute extrusion mode
; Ender 3 Custom Start G-code
G92 E0 ; Reset Extruder
G28 ; Home all axes
G1 Z2.0 F3000 ; Move Z Axis up little to prevent scratching of Heat Bed
G1 X0.1 Y20 Z0.3 F5000.0 ; Move to start position
G1 X0.1 Y200.0 Z0.3 F1500.0 E15 ; Draw the first line
G1 X0.4 Y200.0 Z0.3 F5000.0 ; Move to side a little
G1 X0.4 Y20 Z0.3 F1500.0 E30 ; Draw the second line
G92 E0 ; Reset Extruder
G1 Z2.0 F3000 ; Move Z Axis up little to prevent scratching of Heat Bed
G1 X5 Y20 Z0.3 F5000.0 ; Move over to prevent blob squish
G92 E0
G92 E0
G1 F1500 E-6.5
;LAYER_COUNT:100
;LAYER:0
M107
G0 F6000 X54.665 Y44.922 Z0.2
;TYPE:SKIRT
G1 F1500 E0
G1 F1200 X55.208 Y44.349 E0.02626
G1 X55.807 Y43.834 E0.05253
G1 X56.455 Y43.383 E0.07879
G1 X57.146 Y42.999 E0.10508
G1 X57.871 Y42.687 E0.13133
G1 X58.624 Y42.45 E0.15759
G1 X59.398 Y42.291 E0.18387
G1 X60.183 Y42.21 E0.21012
G1 X60.585 Y42.2 E0.22349
G1 X159.415 Y42.2 E3.51059
G1 X160.204 Y42.24 E3.53687
G1 X160.984 Y42.359 E3.56311
G1 X161.749 Y42.557 E3.58939
G1 X162.489 Y42.831 E3.61564
G1 X163.198 Y43.179 E3.64191
G1 X163.869 Y43.597 E3.6682
G1 X164.493 Y44.08 E3.69445
G1 X165.066 Y44.623 E3.7207
G1 X165.581 Y45.222 E3.74698
G1 X166.032 Y45.87 E3.77324
G1 X166.416 Y46.561 E3.79953
G1 X166.728 Y47.286 E3.82578
G1 X166.965 Y48.039 E3.85204
G1 X167.124 Y48.813 E3.87832
G1 X167.205 Y49.598 E3.90457
G1 X167.215 Y50 E3.91794
G1 X167.215 Y105 E5.74725
G1 X167.175 Y105.789 E5.77352
G1 X167.056 Y106.569 E5.79977
G1 X166.858 Y107.334 E5.82605
G1 X166.584 Y108.074 E5.85229
G1 X166.236 Y108.783 E5.87856
G1 X165.818 Y109.454 E5.90486
G1 X165.393 Y110.003 E5.92795
G1 X165.581 Y110.222 E5.93755
G1 X166.032 Y110.87 E5.96381
G1 X166.416 Y111.561 E5.9901
G1 X166.728 Y112.286 E6.01635
G1 X166.965 Y113.039 E6.04261
G1 X167.124 Y113.813 E6.06889
G1 X167.205 Y114.598 E6.09514
G1 X167.215 Y115 E6.10851
G1 X167.215 Y170 E7.93782
G1 X167.175 Y170.789 E7.9641
G1 X167.056 Y171.569 E7.99034
G1 X166.858 Y172.334 E8.01662
G1 X166.584 Y173.074 E8.04287
G1 X166.236 Y173.783 E8.06914
G1 X165.818 Y174.454 E8.09543
G1 X165.335 Y175.078 E8.12167
G1 X164.792 Y175.651 E8.14793
G1 X164.193 Y176.166 E8.1742
G1 X163.545 Y176.617 E8.20046
G1 X162.854 Y177.001 E8.22676
G1 X162.129 Y177.313 E8.25301
G1 X161.376 Y177.55 E8.27926
G1 X160.602 Y177.709 E8.30554
G1 X159.817 Y177.79 E8.33179
G1 X159.415 Y177.8 E8.34517
G1 X60.585 Y177.8 E11.63227
G1 X59.796 Y177.76 E11.65854
G1 X59.016 Y177.641 E11.68479
G1 X58.251 Y177.443 E11.71107
G1 X57.511 Y177.169 E11.73731
G1 X56.802 Y176.821 E11.76358
G1 X56.131 Y176.403 E11.78988
G1 X55.507 Y175.92 E11.81612
G1 X54.934 Y175.377 E11.84238
G1 X54.419 Y174.778 E11.86865
G1 X53.968 Y174.13 E11.89491
G1 X53.584 Y173.439 E11.9212
G1 X53.272 Y172.714 E11.94746
G1 X53.035 Y171.961 E11.97371
G1 X52.876 Y171.187 E11.99999
G1 X52.795 Y170.402 E12.02624
G1 X52.785 Y170 E12.03961
G1 X52.785 Y115 E13.86892
G1 X52.825 Y114.211 E13.8952
G1 X52.944 Y113.431 E13.92144
G1 X53.142 Y112.666 E13.94772
G1 X53.416 Y111.926 E13.97397
G1 X53.764 Y111.217 E14.00024
G1 X54.182 Y110.546 E14.02653
G1 X54.607 Y109.997 E14.04962
G1 X54.419 Y109.778 E14.05922
G1 X53.968 Y109.13 E14.08548
G1 X53.584 Y108.439 E14.11178
G1 X53.272 Y107.714 E14.13803
G1 X53.035 Y106.961 E14.16428
G1 X52.876 Y106.187 E14.19056
G1 X52.795 Y105.402 E14.21681
G1 X52.785 Y105 E14.23019
G1 X52.785 Y50 E16.05949
G1 X52.825 Y49.211 E16.08577
G1 X52.944 Y48.431 E16.11201
G1 X53.142 Y47.666 E16.1383
G1 X53.416 Y46.926 E16.16454
G1 X53.764 Y46.217 E16.19081
G1 X54.182 Y45.546 E16.2171
G1 X54.665 Y44.922 E16.24335
G0 F6000 X55.06 Y45.077
G1 F1200 X55.601 Y44.53 E16.26894
G1 X56.196 Y44.042 E16.29453
G1 X56.838 Y43.619 E16.3201
G1 X57.521 Y43.264 E16.3457
G1 X58.236 Y42.983 E16.37126
G1 X58.978 Y42.777 E16.39687
G1 X59.736 Y42.649 E16.42244
G1 X60.585 Y42.6 E16.45072
G1 X159.415 Y42.6 E19.73782
G1 X160.183 Y42.64 E19.7634
G1 X160.943 Y42.759 E19.78899
G1 X161.686 Y42.957 E19.81456
G1 X162.405 Y43.231 E19.84015
G1 X163.091 Y43.578 E19.86572
G1 X163.738 Y43.994 E19.8913
G1 X164.338 Y44.475 E19.91688
G1 X164.885 Y45.016 E19.94247
G1 X165.373 Y45.611 E19.96806
G1 X165.796 Y46.253 E19.99364
G1 X166.151 Y46.936 E20.01924
G1 X166.432 Y47.651 E20.04479
G1 X166.638 Y48.393 E20.0704
G1 X166.766 Y49.151 E20.09597
G1 X166.815 Y50 E20.12425
G1 X166.815 Y105 E21.95356
G1 X166.775 Y105.768 E21.97914
G1 X166.656 Y106.528 E22.00473
G1 X166.458 Y107.271 E22.0303
G1 X166.184 Y107.99 E22.05589
G1 X165.837 Y108.676 E22.08146
G1 X165.421 Y109.323 E22.10705
G1 X164.94 Y109.923 E22.13262
G1 X164.866 Y109.998 E22.13613
G1 X164.885 Y110.016 E22.137
G1 X165.373 Y110.611 E22.16259
G1 X165.796 Y111.253 E22.18816
G1 X166.151 Y111.936 E22.21377
G1 X166.432 Y112.651 E22.23932
G1 X166.638 Y113.393 E22.26493
G1 X166.766 Y114.151 E22.2905
G1 X166.815 Y115 E22.31878
G1 X166.815 Y170 E24.14809
G1 X166.775 Y170.768 E24.17367
G1 X166.656 Y171.528 E24.19925
G1 X166.458 Y172.271 E24.22483
G1 X166.184 Y172.99 E24.25042
G1 X165.837 Y173.676 E24.27599
G1 X165.421 Y174.323 E24.30157
G1 X164.94 Y174.923 E24.32715
G1 X164.399 Y175.47 E24.35274
G1 X163.804 Y175.958 E24.37833
G1 X163.162 Y176.381 E24.4039
G1 X162.479 Y176.736 E24.42951
G1 X161.764 Y177.017 E24.45506
G1 X161.022 Y177.223 E24.48067
G1 X160.264 Y177.351 E24.50624
G1 X159.415 Y177.4 E24.53452
G1 X60.585 Y177.4 E27.82162
G1 X59.817 Y177.36 E27.8472
G1 X59.057 Y177.241 E27.87279
G1 X58.314 Y177.043 E27.89836
G1 X57.595 Y176.769 E27.92395
G1 X56.909 Y176.422 E27.94952
G1 X56.262 Y176.006 E27.97511
G1 X55.662 Y175.525 E28.00068
G1 X55.115 Y174.984 E28.02627
G1 X54.627 Y174.389 E28.05187
G1 X54.204 Y173.747 E28.07744
G1 X53.849 Y173.064 E28.10304
G1 X53.568 Y172.349 E28.12859
G1 X53.362 Y171.607 E28.1542
G1 X53.234 Y170.849 E28.17977
G1 X53.185 Y170 E28.20806
G1 X53.185 Y115 E30.03736
G1 X53.225 Y114.232 E30.06294
G1 X53.344 Y113.472 E30.08853
G1 X53.542 Y112.729 E30.1141
G1 X53.816 Y112.01 E30.13969
G1 X54.163 Y111.324 E30.16526
G1 X54.579 Y110.677 E30.19085
G1 X55.06 Y110.077 E30.21642
G1 X55.134 Y110.002 E30.21993
G1 X55.115 Y109.984 E30.2208
G1 X54.627 Y109.389 E30.24639
G1 X54.204 Y108.747 E30.27196
G1 X53.849 Y108.064 E30.29757
G1 X53.568 Y107.349 E30.32312
G1 X53.362 Y106.607 E30.34873
G1 X53.234 Y105.849 E30.3743
G1 X53.185 Y105 E30.40258
G1 X53.185 Y50 E32.23189
G1 X53.225 Y49.232 E32.25747
G1 X53.344 Y48.472 E32.28306
G1 X53.542 Y47.729 E32.30863
G1 X53.816 Y47.01 E32.33422
G1 X54.163 Y46.324 E32.35979
G1 X54.579 Y45.677 E32.38537
G1 X55.06 Y45.077 E32.41095
G0 F6000 X55.456 Y45.237
G1 F1200 X55.993 Y44.716 E32.43584
G1 X56.583 Y44.257 E32.4607
G1 X57.219 Y43.862 E32.4856
G1 X57.893 Y43.538 E32.51047
G1 X58.598 Y43.288 E32.53535
G1 X59.326 Y43.114 E32.56025
G1 X60.068 Y43.019 E32.58513
G1 X60.585 Y43 E32.60234
G1 X159.415 Y43 E35.88943
G1 X160.162 Y43.04 E35.91432
G1 X160.9 Y43.159 E35.93918
G1 X161.622 Y43.357 E35.96408
G1 X162.318 Y43.63 E35.98895
G1 X162.981 Y43.977 E36.01383
G1 X163.604 Y44.392 E36.03873
G1 X164.178 Y44.871 E36.0636
G1 X164.699 Y45.408 E36.08848
G1 X165.158 Y45.998 E36.11335
G1 X165.553 Y46.634 E36.13825
G1 X165.877 Y47.308 E36.16312
G1 X166.127 Y48.013 E36.188
G1 X166.301 Y48.741 E36.21289
G1 X166.396 Y49.483 E36.23777
G1 X166.415 Y50 E36.25498
G1 X166.415 Y105 E38.08429
G1 X166.375 Y105.747 E38.10917
G1 X166.256 Y106.485 E38.13403
G1 X166.058 Y107.207 E38.15893
G1 X165.785 Y107.903 E38.1838
G1 X165.438 Y108.566 E38.20869
G1 X165.023 Y109.189 E38.23359
G1 X164.544 Y109.763 E38.25845
G1 X164.301 Y109.998 E38.2697
G1 X164.699 Y110.408 E38.2887
G1 X165.158 Y110.998 E38.31356
G1 X165.553 Y111.634 E38.33846
G1 X165.877 Y112.308 E38.36334
G1 X166.127 Y113.013 E38.38822
G1 X166.301 Y113.741 E38.41311
G1 X166.396 Y114.483 E38.43799
G1 X166.415 Y115 E38.4552
G1 X166.415 Y170 E40.28451
G1 X166.375 Y170.747 E40.30939
G1 X166.256 Y171.485 E40.33425
G1 X166.058 Y172.207 E40.35915
G1 X165.785 Y172.903 E40.38402
G1 X165.438 Y173.566 E40.40891
G1 X165.023 Y174.189 E40.4338
G1 X164.544 Y174.763 E40.45867
G1 X164.007 Y175.284 E40.48355
G1 X163.417 Y175.743 E40.50842
G1 X162.781 Y176.138 E40.53332
G1 X162.107 Y176.462 E40.55819
G1 X161.402 Y176.712 E40.58307
G1 X160.674 Y176.886 E40.60797
G1 X159.932 Y176.981 E40.63285
G1 X159.415 Y177 E40.65005
G1 X60.585 Y177 E43.93715
G1 X59.838 Y176.96 E43.96203
G1 X59.1 Y176.841 E43.9869
G1 X58.378 Y176.643 E44.0118
G1 X57.682 Y176.37 E44.03666
G1 X57.019 Y176.023 E44.06155
G1 X56.396 Y175.608 E44.08645
G1 X55.822 Y175.129 E44.11131
G1 X55.301 Y174.592 E44.1362
G1 X54.842 Y174.002 E44.16106
G1 X54.447 Y173.366 E44.18596
G1 X54.123 Y172.692 E44.21084
G1 X53.873 Y171.987 E44.23572
G1 X53.699 Y171.259 E44.26061
G1 X53.604 Y170.517 E44.28549
G1 X53.585 Y170 E44.3027
G1 X53.585 Y115 E46.13201
G1 X53.625 Y114.253 E46.15689
G1 X53.744 Y113.515 E46.18175
G1 X53.942 Y112.793 E46.20665
G1 X54.215 Y112.097 E46.23152
G1 X54.562 Y111.434 E46.25641
G1 X54.977 Y110.811 E46.2813
G1 X55.456 Y110.237 E46.30617
G1 X55.699 Y110.002 E46.31741
G1 X55.301 Y109.592 E46.33642
G1 X54.842 Y109.002 E46.36128
G1 X54.447 Y108.366 E46.38618
G1 X54.123 Y107.692 E46.41105
G1 X53.873 Y106.987 E46.43593
G1 X53.699 Y106.259 E46.46083
G1 X53.604 Y105.517 E46.48571
G1 X53.585 Y105 E46.50292
G1 X53.585 Y50 E48.33222
G1 X53.625 Y49.253 E48.3571
G1 X53.744 Y48.515 E48.38197
G1 X53.942 Y47.793 E48.40687
G1 X54.215 Y47.097 E48.43173
G1 X54.562 Y46.434 E48.45662
G1 X54.977 Y45.811 E48.48152
G1 X55.456 Y45.237 E48.50639
G0 F6000 X55.374 Y45.95
G1 F1200 X55.85 Y45.402 E48.53053
G1 X56.384 Y44.909 E48.5547
G1 X56.969 Y44.479 E48.57885
G1 X57.598 Y44.115 E48.60302
G1 X58.263 Y43.822 E48.62719
G1 X58.956 Y43.604 E48.65135
G1 X59.668 Y43.464 E48.67549
G1 X60.585 Y43.4 E48.70606
G1 X159.415 Y43.4 E51.99316
G1 X160.14 Y43.44 E52.01731
G1 X160.857 Y43.559 E52.04148
G1 X161.556 Y43.757 E52.06565
G1 X162.229 Y44.03 E52.0898
G1 X162.868 Y44.375 E52.11396
G1 X163.465 Y44.789 E52.13812
G1 X164.013 Y45.265 E52.16226
G1 X164.506 Y45.799 E52.18644
G1 X164.936 Y46.384 E52.21058
G1 X165.3 Y47.013 E52.23475
G1 X165.593 Y47.678 E52.25892
G1 X165.811 Y48.371 E52.28309
G1 X165.951 Y49.083 E52.30722
G1 X166.015 Y50 E52.3378
G1 X166.015 Y105 E54.1671
G1 X165.975 Y105.725 E54.19125
G1 X165.856 Y106.442 E54.21543
G1 X165.658 Y107.141 E54.23959
G1 X165.385 Y107.814 E54.26375
G1 X165.04 Y108.453 E54.2879
G1 X164.626 Y109.05 E54.31206
G1 X164.15 Y109.598 E54.3362
G1 X163.711 Y110.003 E54.35607
G1 X164.013 Y110.265 E54.36937
G1 X164.506 Y110.799 E54.39354
G1 X164.936 Y111.384 E54.41769
G1 X165.3 Y112.013 E54.44186
G1 X165.593 Y112.678 E54.46603
G1 X165.811 Y113.371 E54.49019
G1 X165.951 Y114.083 E54.51433
G1 X166.015 Y115 E54.5449
G1 X166.015 Y170 E56.37421
G1 X165.975 Y170.725 E56.39836
G1 X165.856 Y171.442 E56.42253
G1 X165.658 Y172.141 E56.4467
G1 X165.385 Y172.814 E56.47085
G1 X165.04 Y173.453 E56.495
G1 X164.626 Y174.05 E56.51917
G1 X164.15 Y174.598 E56.54331
G1 X163.616 Y175.091 E56.56748
G1 X163.031 Y175.521 E56.59163
G1 X162.402 Y175.885 E56.6158
G1 X161.737 Y176.178 E56.63997
G1 X161.044 Y176.396 E56.66413
G1 X160.332 Y176.536 E56.68827
G1 X159.415 Y176.6 E56.71884
G1 X60.585 Y176.6 E60.00594
G1 X59.86 Y176.56 E60.03009
G1 X59.143 Y176.441 E60.05427
G1 X58.444 Y176.243 E60.07843
G1 X57.771 Y175.97 E60.10259
G1 X57.132 Y175.625 E60.12674
G1 X56.535 Y175.211 E60.1509
G1 X55.987 Y174.735 E60.17504
G1 X55.494 Y174.201 E60.19922
G1 X55.064 Y173.616 E60.22337
G1 X54.7 Y172.987 E60.24754
G1 X54.407 Y172.322 E60.27171
G1 X54.189 Y171.629 E60.29587
G1 X54.049 Y170.917 E60.32
G1 X53.985 Y170 E60.35058
G1 X53.985 Y115 E62.17988
G1 X54.025 Y114.275 E62.20403
G1 X54.144 Y113.558 E62.22821
G1 X54.342 Y112.859 E62.25237
G1 X54.615 Y112.186 E62.27653
G1 X54.96 Y111.547 E62.30068
G1 X55.374 Y110.95 E62.32484
G1 X55.85 Y110.402 E62.34899
G1 X56.289 Y109.997 E62.36885
G1 X55.987 Y109.735 E62.38215
G1 X55.494 Y109.201 E62.40632
G1 X55.064 Y108.616 E62.43047
G1 X54.7 Y107.987 E62.45464
G1 X54.407 Y107.322 E62.47881
G1 X54.189 Y106.629 E62.50297
G1 X54.049 Y105.917 E62.52711
G1 X53.985 Y105 E62.55768
G1 X53.985 Y50 E64.38699
G1 X54.025 Y49.275 E64.41114
G1 X54.144 Y48.558 E64.43531
G1 X54.342 Y47.859 E64.45948
G1 X54.615 Y47.186 E64.48363
G1 X54.96 Y46.547 E64.50779
G1 X55.374 Y45.95 E64.53195
G0 F6000 X55.77 Y46.094
G1 F1200 X56.244 Y45.573 E64.55538
G1 X56.774 Y45.109 E64.57881
G1 X57.353 Y44.709 E64.60221
G1 X57.974 Y44.377 E64.62563
G1 X58.628 Y44.117 E64.64904
G1 X59.308 Y43.933 E64.67247
G1 X60.004 Y43.827 E64.69589
G1 X60.585 Y43.8 E64.71523
G1 X159.415 Y43.8 E68.00233
G1 X160.118 Y43.84 E68.02575
G1 X160.812 Y43.959 E68.04917
G1 X161.487 Y44.157 E68.07257
G1 X162.136 Y44.429 E68.09597
G1 X162.75 Y44.774 E68.1194
G1 X163.321 Y45.185 E68.1428
G1 X163.842 Y45.659 E68.16622
G1 X164.306 Y46.189 E68.18965
G1 X164.706 Y46.768 E68.21306
G1 X165.038 Y47.389 E68.23648
G1 X165.298 Y48.043 E68.25989
G1 X165.482 Y48.723 E68.28332
G1 X165.588 Y49.419 E68.30673
G1 X165.615 Y50 E68.32608
G1 X165.615 Y105 E70.15539
G1 X165.575 Y105.703 E70.17881
G1 X165.456 Y106.397 E70.20223
G1 X165.258 Y107.072 E70.22562
G1 X164.986 Y107.721 E70.24903
G1 X164.641 Y108.335 E70.27245
G1 X164.23 Y108.906 E70.29585
G1 X163.756 Y109.427 E70.31928
G1 X163.226 Y109.891 E70.34271
G1 X163.066 Y110.001 E70.34917
G1 X163.321 Y110.185 E70.35962
G1 X163.842 Y110.659 E70.38305
G1 X164.306 Y111.189 E70.40648
G1 X164.706 Y111.768 E70.42989
G1 X165.038 Y112.389 E70.45331
G1 X165.298 Y113.043 E70.47672
G1 X165.482 Y113.723 E70.50015
G1 X165.588 Y114.419 E70.52356
G1 X165.615 Y115 E70.54291
G1 X165.615 Y170 E72.37221
G1 X165.575 Y170.703 E72.39563
G1 X165.456 Y171.397 E72.41905
G1 X165.258 Y172.072 E72.44245
G1 X164.986 Y172.721 E72.46585
G1 X164.641 Y173.335 E72.48928
G1 X164.23 Y173.906 E72.51268
G1 X163.756 Y174.427 E72.53611
G1 X163.226 Y174.891 E72.55953
G1 X162.647 Y175.291 E72.58294
G1 X162.026 Y175.623 E72.60636
G1 X161.372 Y175.883 E72.62977
G1 X160.692 Y176.067 E72.6532
G1 X159.996 Y176.173 E72.67662
G1 X159.415 Y176.2 E72.69596
G1 X60.585 Y176.2 E75.98306
G1 X59.882 Y176.16 E76.00648
G1 X59.188 Y176.041 E76.0299
G1 X58.513 Y175.843 E76.0533
G1 X57.864 Y175.571 E76.0767
G1 X57.25 Y175.226 E76.10013
G1 X56.679 Y174.815 E76.12353
G1 X56.158 Y174.341 E76.14695
G1 X55.694 Y173.811 E76.17038
G1 X55.294 Y173.232 E76.19379
G1 X54.962 Y172.611 E76.21721
G1 X54.702 Y171.957 E76.24062
G1 X54.518 Y171.277 E76.26405
G1 X54.412 Y170.581 E76.28746
G1 X54.385 Y170 E76.30681
G1 X54.385 Y115 E78.13612
G1 X54.425 Y114.297 E78.15953
G1 X54.544 Y113.603 E78.18295
G1 X54.742 Y112.928 E78.20635
G1 X55.014 Y112.279 E78.22976
G1 X55.359 Y111.665 E78.25318
G1 X55.77 Y111.094 E78.27658
G1 X56.244 Y110.573 E78.30001
G1 X56.774 Y110.109 E78.32344
G1 X56.934 Y109.999 E78.32989
G1 X56.679 Y109.815 E78.34035
G1 X56.158 Y109.341 E78.36378
G1 X55.694 Y108.811 E78.38721
G1 X55.294 Y108.232 E78.41061
G1 X54.962 Y107.611 E78.43404
G1 X54.702 Y106.957 E78.45744
G1 X54.518 Y106.277 E78.48087
G1 X54.412 Y105.581 E78.50429
G1 X54.385 Y105 E78.52363
G1 X54.385 Y50 E80.35294
G1 X54.425 Y49.297 E80.37636
G1 X54.544 Y48.603 E80.39978
G1 X54.742 Y47.928 E80.42318
G1 X55.014 Y47.279 E80.44658
G1 X55.359 Y46.665 E80.47001
G1 X55.77 Y46.094 E80.49341
G0 F6000 X56.167 Y46.242
G1 F1200 X56.638 Y45.751 E80.51604
G1 X57.163 Y45.317 E80.53869
G1 X57.735 Y44.948 E80.56133
G1 X58.347 Y44.649 E80.58399
G1 X58.989 Y44.424 E80.60661
G1 X59.654 Y44.275 E80.62928
G1 X60.585 Y44.2 E80.66035
G1 X159.415 Y44.2 E83.94744
G1 X160.095 Y44.24 E83.9701
G1 X160.765 Y44.359 E83.99273
G1 X161.417 Y44.556 E84.01539
G1 X162.041 Y44.828 E84.03803
G1 X162.629 Y45.172 E84.06069
G1 X163.173 Y45.582 E84.08334
G1 X163.664 Y46.053 E84.10597
G1 X164.098 Y46.578 E84.12863
G1 X164.467 Y47.15 E84.15127
G1 X164.766 Y47.762 E84.17392
G1 X164.991 Y48.404 E84.19655
G1 X165.14 Y49.069 E84.21922
G1 X165.215 Y50 E84.25028
