;FLAVOR:Marlin
;TIME:3274
;Filament used: 1.49378m
;Layer height: 0.2
;MINX:70.201
;MINY:85.7
;MINZ:0.2
;MAXX:150.664
;MAXY:135.164
;MAXZ:7
;Generated with Cura_SteamEngine 4.8.0
M140 S60
M105
M190 S60
M104 S200
M105
M109 S200
M82 ;absolute extrusion mode
; Ender 3 Custom Start G-code
G92 E0 ; Reset Extruder
G28 ; Home all axes
G1 Z2.0 F3000 ; Move Z Axis up little to prevent scratching of Heat Bed
G1 X0.1 Y20 Z0.3 F5000.0 ; Move to start position
G1 X0.1 Y200.0 Z0.3 F1500.0 E15 ; Draw the first line
G1 X0.4 Y200.0 Z0.3 F5000.0 ; Move to side a little
G1 X0.4 Y20 Z0.3 F1500.0 E30 ; Draw the second line
G92 E0 ; Reset Extruder
G1 Z2.0 F3000 ; Move Z Axis up little to prevent scratching of Heat Bed
G1 X5 Y20 Z0.3 F5000.0 ; Move over to prevent blob squish
G92 E0
G92 E0
G1 F1500 E-6.5
;LAYER_COUNT:35
;LAYER:0
M107
;MESH:pcb v7.stl
G0 F6000 X143.893 Y93.187 Z0.2
;TYPE:WALL-INNER
G1 F1500 E0
G1 F1200 X144.435 Y93.31 E0.01849
G1 X144.991 Y93.334 E0.037
G1 X145.543 Y93.258 E0.05553
G1 X146.07 Y93.084 E0.07399
G1 X146.56 Y92.82 E0.0925
G1 X146.993 Y92.472 E0.11098
G1 X147.358 Y92.053 E0.12946
G1 X147.642 Y91.574 E0.14798
G1 X147.837 Y91.053 E0.16648
G1 X147.935 Y90.506 E0.18496
G1 X147.934 Y89.95 E0.20346
G1 X147.833 Y89.402 E0.22199
G1 X147.636 Y88.883 E0.24045
G1 X147.349 Y88.406 E0.25897
G1 X146.982 Y87.988 E0.27747
G1 X146.548 Y87.642 E0.29593
G1 X146.056 Y87.379 E0.31449
G1 X145.527 Y87.209 E0.33297
G1 X144.977 Y87.136 E0.35142
G1 X144.421 Y87.162 E0.36993
G1 X143.878 Y87.287 E0.38847
G1 X143.367 Y87.507 E0.40697
G1 X142.906 Y87.815 E0.42541
G1 X142.503 Y88.199 E0.44393
G1 X142.178 Y88.651 E0.46244
G1 X141.94 Y89.145 E0.48068
G1 X141.792 Y89.682 E0.49921
G1 X141.742 Y90.242 E0.51791
G1 X141.793 Y90.797 E0.53644
G1 X141.944 Y91.334 E0.555
G1 X142.187 Y91.833 E0.57346
G1 X142.513 Y92.281 E0.59188
G1 X142.916 Y92.664 E0.61038
G1 X143.375 Y92.968 E0.62869
G1 X143.893 Y93.187 E0.64739
G0 F6000 X144.016 Y92.805
;TYPE:WALL-OUTER
G1 F1200 X144.488 Y92.912 E0.66349
G1 X144.972 Y92.933 E0.6796
G1 X145.452 Y92.867 E0.69572
G1 X145.911 Y92.715 E0.7118
G1 X146.338 Y92.485 E0.72793
G1 X146.715 Y92.182 E0.74402
G1 X147.033 Y91.818 E0.76009
G1 X147.28 Y91.401 E0.77621
G1 X147.45 Y90.947 E0.79234
G1 X147.535 Y90.471 E0.80842
G1 X147.534 Y89.987 E0.82452
G1 X147.446 Y89.51 E0.84065
G1 X147.275 Y89.058 E0.85672
G1 X147.025 Y88.643 E0.87284
G1 X146.705 Y88.279 E0.88896
G1 X146.327 Y87.978 E0.90503
G1 X145.899 Y87.749 E0.92117
G1 X145.439 Y87.601 E0.93725
G1 X144.96 Y87.537 E0.95332
G1 X144.476 Y87.56 E0.96944
G1 X144.003 Y87.669 E0.98558
G1 X143.559 Y87.86 E1.00166
G1 X143.157 Y88.128 E1.01773
G1 X142.806 Y88.463 E1.03386
G1 X142.523 Y88.856 E1.04997
G1 X142.316 Y89.286 E1.06584
G1 X142.187 Y89.753 E1.08196
G1 X142.144 Y90.241 E1.09825
G1 X142.188 Y90.724 E1.11438
G1 X142.319 Y91.191 E1.13052
G1 X142.531 Y91.626 E1.14661
G1 X142.815 Y92.016 E1.16266
G1 X143.166 Y92.35 E1.17877
G1 X143.565 Y92.614 E1.19468
G1 X144.016 Y92.805 E1.21097
G0 F6000 X143.882 Y93.223
G1 F1500 E-5.28903
G0 F6000 X142.369 Y92.407
G0 X143.466 Y91.442
G0 X139.185 Y91.448
G0 X114.038 Y104.905
G0 X113.277 Y104.104
G0 X112.612 Y103.576
G0 X111.886 Y103.118
G0 X111.133 Y102.751
G0 X80.488 Y91.579
G0 X76.267 Y91.551
G0 X77.281 Y92.602
G0 X75.697 Y93.249
;TYPE:WALL-INNER
G1 F1500 E1.21097
G1 F1200 X76.225 Y93.076 E1.22945
G1 X76.715 Y92.811 E1.24798
G1 X77.148 Y92.464 E1.26644
G1 X77.513 Y92.044 E1.28495
G1 X77.797 Y91.566 E1.30344
G1 X77.991 Y91.045 E1.32193
G1 X78.089 Y90.498 E1.34041
G1 X78.088 Y89.942 E1.3589
G1 X77.987 Y89.394 E1.37744
G1 X77.792 Y88.875 E1.39588
G1 X77.504 Y88.396 E1.41447
G1 X77.137 Y87.98 E1.43292
G1 X76.703 Y87.633 E1.4514
G1 X76.211 Y87.371 E1.46994
G1 X75.683 Y87.201 E1.48839
G1 X75.131 Y87.127 E1.50691
G1 X74.576 Y87.154 E1.52539
G1 X74.034 Y87.278 E1.54389
G1 X73.523 Y87.498 E1.56239
G1 X73.06 Y87.806 E1.58089
G1 X72.658 Y88.191 E1.5994
G1 X72.332 Y88.643 E1.61794
G1 X72.095 Y89.136 E1.63613
G1 X71.946 Y89.673 E1.65466
G1 X71.896 Y90.234 E1.6734
G1 X71.948 Y90.789 E1.69194
G1 X72.098 Y91.324 E1.71042
G1 X72.336 Y91.818 E1.72866
G1 X72.668 Y92.274 E1.74742
G1 X73.071 Y92.657 E1.76591
G1 X73.53 Y92.959 E1.78418
G1 X74.048 Y93.179 E1.8029
G1 X74.591 Y93.301 E1.82141
G1 X75.145 Y93.325 E1.83985
G1 X75.697 Y93.249 E1.85839
G0 F6000 X75.607 Y92.858
;TYPE:WALL-OUTER
G1 F1200 X76.066 Y92.707 E1.87446
G1 X76.493 Y92.476 E1.89061
G1 X76.87 Y92.174 E1.90667
G1 X77.188 Y91.809 E1.92277
G1 X77.435 Y91.393 E1.93886
G1 X77.604 Y90.939 E1.95498
G1 X77.689 Y90.463 E1.97106
G1 X77.688 Y89.979 E1.98716
G1 X77.6 Y89.502 E2.00329
G1 X77.43 Y89.05 E2.01935
G1 X77.18 Y88.633 E2.03552
G1 X76.86 Y88.271 E2.05159
G1 X76.482 Y87.969 E2.06768
G1 X76.054 Y87.741 E2.08381
G1 X75.594 Y87.593 E2.09989
G1 X75.114 Y87.528 E2.116
G1 X74.631 Y87.552 E2.13208
G1 X74.159 Y87.66 E2.14819
G1 X73.714 Y87.851 E2.16429
G1 X73.311 Y88.119 E2.18039
G1 X72.961 Y88.455 E2.19653
G1 X72.677 Y88.848 E2.21265
G1 X72.471 Y89.277 E2.22848
G1 X72.341 Y89.745 E2.24464
G1 X72.298 Y90.233 E2.26093
G1 X72.343 Y90.716 E2.27706
G1 X72.474 Y91.182 E2.29316
G1 X72.681 Y91.612 E2.30904
G1 X72.97 Y92.009 E2.32537
G1 X73.321 Y92.342 E2.34146
G1 X73.72 Y92.605 E2.35736
G1 X74.171 Y92.797 E2.37366
G1 X74.644 Y92.903 E2.38978
G1 X75.126 Y92.924 E2.40583
G1 X75.607 Y92.858 E2.42198
G0 F6000 X75.706 Y93.286
G1 F1500 E-4.07802
G0 F6000 X75.155 Y93.517
G0 X75.085 Y92.058
G0 X75.118 Y95.798
G0 X75.44 Y95.874
G0 X75.449 Y123.953
G0 X75.408 Y127.814
G0 X75.725 Y126.387
G0 X77.027 Y127.469
G0 X77.376 Y127.867
G0 X77.647 Y128.317
G0 X77.833 Y128.811
G0 X77.929 Y129.331
G0 X77.93 Y129.857
G0 X77.838 Y130.375
G0 X77.653 Y130.87
G0 X77.385 Y131.323
G0 X76.227 Y132.449
;TYPE:WALL-INNER
G1 F1500 E2.42198
G1 F1200 X76.716 Y132.184 E2.44048
G1 X77.15 Y131.837 E2.45896
G1 X77.516 Y131.417 E2.47749
G1 X77.798 Y130.939 E2.49594
G1 X77.993 Y130.418 E2.51445
G1 X78.091 Y129.871 E2.53293
G1 X78.09 Y129.315 E2.55142
G1 X77.989 Y128.767 E2.56996
G1 X77.792 Y128.247 E2.58845
G1 X77.506 Y127.771 E2.60692
G1 X77.139 Y127.352 E2.62545
G1 X76.703 Y127.007 E2.64394
G1 X76.213 Y126.744 E2.66244
G1 X75.683 Y126.574 E2.68095
G1 X75.133 Y126.501 E2.6994
G1 X74.578 Y126.527 E2.71788
G1 X74.034 Y126.651 E2.73644
G1 X73.523 Y126.872 E2.75496
G1 X73.062 Y127.178 E2.77336
G1 X72.659 Y127.564 E2.79192
G1 X72.334 Y128.016 E2.81044
G1 X72.096 Y128.51 E2.82867
G1 X71.948 Y129.047 E2.8472
G1 X71.898 Y129.607 E2.8659
G1 X71.95 Y130.161 E2.88441
G1 X72.099 Y130.697 E2.90291
G1 X72.343 Y131.197 E2.92142
G1 X72.669 Y131.646 E2.93987
G1 X73.072 Y132.029 E2.95836
G1 X73.531 Y132.332 E2.97666
G1 X74.049 Y132.552 E2.99537
G1 X74.592 Y132.674 E3.01388
G1 X75.147 Y132.698 E3.03236
G1 X75.698 Y132.622 E3.05086
G1 X76.227 Y132.449 E3.06937
G0 F6000 X76.068 Y132.08
;TYPE:WALL-OUTER
G1 F1200 X76.494 Y131.849 E3.08549
G1 X76.872 Y131.547 E3.10158
G1 X77.19 Y131.182 E3.11768
G1 X77.436 Y130.766 E3.13376
G1 X77.606 Y130.312 E3.14988
G1 X77.691 Y129.836 E3.16596
G1 X77.69 Y129.352 E3.18206
G1 X77.602 Y128.875 E3.19819
G1 X77.431 Y128.422 E3.2143
G1 X77.182 Y128.008 E3.23037
G1 X76.862 Y127.643 E3.24651
G1 X76.483 Y127.343 E3.26259
G1 X76.056 Y127.114 E3.2787
G1 X75.595 Y126.966 E3.29481
G1 X75.116 Y126.902 E3.31088
G1 X74.632 Y126.925 E3.327
G1 X74.159 Y127.033 E3.34313
G1 X73.715 Y127.225 E3.35922
G1 X73.313 Y127.492 E3.37527
G1 X72.962 Y127.828 E3.39144
G1 X72.679 Y128.221 E3.40754
G1 X72.472 Y128.651 E3.42342
G1 X72.343 Y129.118 E3.43953
G1 X72.3 Y129.606 E3.45582
G1 X72.345 Y130.088 E3.47192
G1 X72.475 Y130.555 E3.48805
G1 X72.687 Y130.99 E3.50414
G1 X72.971 Y131.381 E3.52022
G1 X73.322 Y131.715 E3.53633
G1 X73.721 Y131.978 E3.55223
G1 X74.172 Y132.17 E3.56853
G1 X74.645 Y132.276 E3.58465
G1 X75.128 Y132.297 E3.60073
G1 X75.608 Y132.231 E3.61685
G1 X76.068 Y132.08 E3.63295
G0 F6000 X76.242 Y132.484
G1 F1500 E-2.86705
G0 F6000 X77.27 Y131.44
G0 X78.282 Y129.888
G0 X76.827 Y129.762
G0 X86.349 Y120.99
G0 X94.006 Y116.408
G0 X93.395 Y114.908
G0 X93.361 Y114.531
G0 X96.852 Y111.317
G0 X96.634 Y112.764
G0 X97.187 Y112.6
;TYPE:WALL-INNER
G1 F1500 E3.63295
G1 F1200 X97.707 Y112.52 E3.65045
G1 X98.202 Y112.338 E3.66799
G1 X98.649 Y112.059 E3.68551
G1 X99.03 Y111.696 E3.70302
G1 X99.332 Y111.264 E3.72055
G1 X99.54 Y110.779 E3.7381
G1 X99.646 Y110.263 E3.75562
G1 X99.646 Y109.737 E3.77312
G1 X99.54 Y109.221 E3.79064
G1 X99.332 Y108.736 E3.80819
G1 X99.03 Y108.304 E3.82572
G1 X98.649 Y107.941 E3.84322
G1 X98.202 Y107.662 E3.86075
G1 X97.707 Y107.48 E3.87829
G1 X97.187 Y107.4 E3.89579
G1 X96.663 Y107.426 E3.91324
G1 X96.151 Y107.558 E3.93082
G1 X95.679 Y107.791 E3.94833
G1 X95.263 Y108.112 E3.96581
G1 X94.919 Y108.512 E3.98336
G1 X94.663 Y108.974 E4.00092
G1 X94.506 Y109.476 E4.01842
G1 X94.453 Y110 E4.03593
G1 X94.506 Y110.524 E4.05345
G1 X94.663 Y111.026 E4.07095
G1 X94.919 Y111.488 E4.08851
G1 X95.263 Y111.888 E4.10606
G1 X95.679 Y112.209 E4.12354
G1 X96.151 Y112.442 E4.14104
G1 X96.663 Y112.574 E4.15863
G1 X97.187 Y112.6 E4.17608
G0 F6000 X97.167 Y112.198
;TYPE:WALL-OUTER
G1 F1200 X97.607 Y112.131 E4.19088
G1 X98.025 Y111.977 E4.2057
G1 X98.403 Y111.741 E4.22052
G1 X98.725 Y111.434 E4.23532
G1 X98.981 Y111.069 E4.25015
G1 X99.156 Y110.659 E4.26497
G1 X99.246 Y110.222 E4.27981
G1 X99.246 Y109.778 E4.29458
G1 X99.156 Y109.341 E4.30942
G1 X98.981 Y108.931 E4.32425
G1 X98.725 Y108.566 E4.33908
G1 X98.403 Y108.259 E4.35387
G1 X98.025 Y108.023 E4.36869
G1 X97.607 Y107.869 E4.38351
G1 X97.167 Y107.802 E4.39831
G1 X96.723 Y107.824 E4.4131
G1 X96.291 Y107.935 E4.42793
G1 X95.892 Y108.132 E4.44273
G1 X95.54 Y108.404 E4.45753
G1 X95.249 Y108.742 E4.47236
G1 X95.033 Y109.132 E4.48719
G1 X94.9 Y109.557 E4.502
G1 X94.855 Y110 E4.51681
G1 X94.9 Y110.443 E4.53162
G1 X95.033 Y110.868 E4.54644
G1 X95.249 Y111.258 E4.56126
G1 X95.54 Y111.596 E4.5761
G1 X95.892 Y111.868 E4.59089
G1 X96.291 Y112.065 E4.60569
G1 X96.723 Y112.176 E4.62053
G1 X97.167 Y112.198 E4.63531
G0 F6000 X97.189 Y112.637
G1 F1500 E-1.86469
G0 F6000 X98.766 Y112.211
G0 X97.869 Y111.056
G0 X101.061 Y116.083
G0 X100.319 Y114.833
G0 X102.509 Y113.952
G0 X103.822 Y115.232
G0 X108.065 Y116.258
;TYPE:WALL-INNER
G1 F1500 E4.63531
G1 F1200 X108.196 Y116.251 E4.63968
G1 X108.812 Y116.213 E4.66021
G1 X109.488 Y116.087 E4.68308
G1 X109.564 Y116.072 E4.68565
G1 X110.095 Y115.907 E4.70415
G1 X110.285 Y115.847 E4.71077
G1 X110.678 Y115.669 E4.72512
G1 X110.972 Y115.536 E4.73586
G1 X111.235 Y115.378 E4.74606
G1 X111.611 Y115.151 E4.76067
G1 X111.77 Y115.026 E4.7674
G1 X112.213 Y114.676 E4.78617
G1 X112.261 Y114.628 E4.78843
G1 X112.729 Y114.159 E4.81047
G1 X112.746 Y114.142 E4.81127
G1 X113.211 Y113.546 E4.83641
G1 X113.352 Y113.313 E4.84547
G1 X113.602 Y112.899 E4.86155
G1 X113.91 Y112.209 E4.88669
G1 X114.134 Y111.489 E4.91177
G1 X114.269 Y110.754 E4.93662
G1 X114.314 Y109.991 E4.96204
G1 X114.269 Y109.244 E4.98693
G1 X114.128 Y108.492 E5.01238
G1 X113.903 Y107.771 E5.0375
G1 X113.592 Y107.083 E5.06261
G1 X113.335 Y106.658 E5.07913
G1 X113.206 Y106.445 E5.08741
G1 X112.733 Y105.843 E5.11288
G1 X112.689 Y105.799 E5.11495
G1 X112.198 Y105.31 E5.138
G1 X111.657 Y104.887 E5.16084
G1 X111.602 Y104.844 E5.16316
G1 X111.09 Y104.536 E5.18303
G1 X110.954 Y104.454 E5.18831
G1 X110.489 Y104.246 E5.20526
G1 X110.265 Y104.146 E5.21342
G1 X109.848 Y104.017 E5.22793
G1 X109.545 Y103.922 E5.2385
G1 X109.222 Y103.863 E5.24942
G1 X108.81 Y103.787 E5.26335
G1 X108.554 Y103.772 E5.27188
G1 X108.047 Y103.742 E5.28877
G1 X107.884 Y103.751 E5.2942
G1 X107.3 Y103.787 E5.31366
G1 X107.218 Y103.802 E5.31644
G1 X106.548 Y103.928 E5.33911
G1 X105.881 Y104.136 E5.36235
G1 X105.827 Y104.153 E5.36423
G1 X105.263 Y104.408 E5.38482
G1 X105.14 Y104.464 E5.38931
G1 X104.691 Y104.734 E5.40674
G1 X104.501 Y104.849 E5.41413
G1 X104.14 Y105.134 E5.42942
G1 X103.899 Y105.324 E5.43963
G1 X103.65 Y105.573 E5.45134
G1 X103.366 Y105.858 E5.46473
G1 X102.9 Y106.454 E5.48989
G1 X102.892 Y106.467 E5.4904
G1 X102.51 Y107.102 E5.51504
G1 X102.202 Y107.791 E5.54015
G1 X101.978 Y108.511 E5.56522
G1 X101.843 Y109.246 E5.59008
G1 X101.798 Y110.009 E5.6155
G1 X101.843 Y110.756 E5.64039
G1 X101.984 Y111.508 E5.66584
G1 X102.209 Y112.229 E5.69096
G1 X102.52 Y112.916 E5.71604
G1 X102.881 Y113.514 E5.73927
G1 X102.905 Y113.555 E5.74086
G1 X103.38 Y114.157 E5.76636
G1 X103.593 Y114.37 E5.77638
G1 X103.914 Y114.69 E5.79145
G1 X104.067 Y114.809 E5.7979
G1 X104.51 Y115.156 E5.81662
G1 X104.558 Y115.185 E5.81848
G1 X105.146 Y115.539 E5.84131
G1 X105.158 Y115.546 E5.84177
G1 X105.714 Y115.794 E5.86202
G1 X105.847 Y115.854 E5.86687
G1 X106.315 Y115.999 E5.88317
G1 X106.567 Y116.078 E5.89195
G1 X106.933 Y116.145 E5.90433
G1 X107.302 Y116.213 E5.91681
G1 X107.557 Y116.228 E5.9253
G1 X108.065 Y116.258 E5.94223
G0 F6000 X108.065 Y115.857
;TYPE:WALL-OUTER
G1 F1200 X108.763 Y115.815 E5.96549
G1 X109.467 Y115.683 E5.98931
G1 X110.142 Y115.472 E6.01283
G1 X110.786 Y115.181 E6.03634
G1 X111.383 Y114.821 E6.05952
G1 X111.947 Y114.377 E6.0834
G1 X112.446 Y113.877 E6.10689
G1 X112.881 Y113.319 E6.13043
G1 X113.247 Y112.713 E6.15397
G1 X113.535 Y112.068 E6.17747
G1 X113.745 Y111.393 E6.20098
G1 X113.871 Y110.706 E6.22421
G1 X113.913 Y109.991 E6.24803
G1 X113.871 Y109.293 E6.27129
G1 X113.739 Y108.589 E6.29511
G1 X113.528 Y107.914 E6.31863
G1 X113.237 Y107.27 E6.34214
G1 X112.876 Y106.673 E6.36534
G1 X112.433 Y106.109 E6.3892
G1 X111.933 Y105.61 E6.41269
G1 X111.375 Y105.174 E6.43624
G1 X110.769 Y104.809 E6.45977
G1 X110.124 Y104.521 E6.48327
G1 X109.449 Y104.311 E6.50678
G1 X108.762 Y104.185 E6.53001
G1 X108.047 Y104.143 E6.55383
G1 X107.349 Y104.185 E6.57709
G1 X106.645 Y104.317 E6.60091
G1 X105.97 Y104.528 E6.62444
G1 X105.326 Y104.819 E6.64794
G1 X104.729 Y105.179 E6.67113
G1 X104.165 Y105.623 E6.695
G1 X103.666 Y106.123 E6.7185
G1 X103.23 Y106.681 E6.74205
G1 X102.865 Y107.287 E6.76558
G1 X102.577 Y107.932 E6.78907
G1 X102.367 Y108.607 E6.81258
G1 X102.241 Y109.294 E6.83582
G1 X102.199 Y110.009 E6.85964
G1 X102.241 Y110.707 E6.88289
G1 X102.373 Y111.411 E6.90672
G1 X102.584 Y112.086 E6.93024
G1 X102.875 Y112.73 E6.95374
G1 X103.235 Y113.327 E6.97693
G1 X103.679 Y113.891 E7.00081
G1 X104.179 Y114.39 E7.0243
G1 X104.737 Y114.826 E7.04785
G1 X105.343 Y115.191 E7.07138
G1 X105.988 Y115.479 E7.09488
G1 X106.663 Y115.689 E7.11839
G1 X107.35 Y115.815 E7.14162
G1 X108.065 Y115.857 E7.16544
G0 F6000 X108.065 Y116.297
G1 F1500 E0.66544
G0 F6000 X112.614 Y115.007
G0 X113.784 Y113.683
G0 X117.3 Y115.141
G0 X118.084 Y112.622
G0 X118.663 Y112.574
;TYPE:WALL-INNER
G1 F1500 E7.16544
G1 F1200 X119.187 Y112.6 E7.18289
G1 X119.707 Y112.52 E7.20039
G1 X120.202 Y112.338 E7.21793
G1 X120.649 Y112.059 E7.23546
G1 X121.03 Y111.696 E7.25296
G1 X121.332 Y111.264 E7.27049
G1 X121.54 Y110.779 E7.28804
G1 X121.646 Y110.263 E7.30556
G1 X121.646 Y109.737 E7.32306
G1 X121.54 Y109.221 E7.34058
G1 X121.332 Y108.736 E7.35813
G1 X121.03 Y108.304 E7.37566
G1 X120.649 Y107.941 E7.39317
G1 X120.202 Y107.662 E7.41069
G1 X119.707 Y107.48 E7.42823
G1 X119.187 Y107.4 E7.44573
G1 X118.663 Y107.426 E7.46318
G1 X118.151 Y107.558 E7.48077
G1 X117.679 Y107.791 E7.49827
G1 X117.263 Y108.112 E7.51575
G1 X116.919 Y108.512 E7.5333
G1 X116.663 Y108.974 E7.55087
G1 X116.506 Y109.476 E7.56836
G1 X116.453 Y110 E7.58588
G1 X116.506 Y110.524 E7.60339
G1 X116.663 Y111.026 E7.62089
G1 X116.919 Y111.488 E7.63846
G1 X117.263 Y111.888 E7.656
G1 X117.679 Y112.209 E7.67348
G1 X118.151 Y112.442 E7.69099
G1 X118.663 Y112.574 E7.70857
G0 F6000 X118.723 Y112.176
;TYPE:WALL-OUTER
G1 F1200 X119.167 Y112.198 E7.72336
G1 X119.607 Y112.131 E7.73816
G1 X120.025 Y111.977 E7.75298
G1 X120.403 Y111.741 E7.7678
G1 X120.725 Y111.434 E7.7826
G1 X120.981 Y111.069 E7.79743
G1 X121.156 Y110.659 E7.81225
G1 X121.246 Y110.222 E7.82709
G1 X121.246 Y109.778 E7.84186
G1 X121.156 Y109.341 E7.8567
G1 X120.981 Y108.931 E7.87153
G1 X120.725 Y108.566 E7.88635
G1 X120.403 Y108.259 E7.90115
G1 X120.025 Y108.023 E7.91597
G1 X119.607 Y107.869 E7.93079
G1 X119.167 Y107.802 E7.94559
G1 X118.723 Y107.824 E7.96038
G1 X118.291 Y107.935 E7.97521
G1 X117.892 Y108.132 E7.99001
